X: 21091
T: Kalamantinos
R: three-two
M: 3/2
K: Cmajor
M:7/8
V:1
|:B2c d2c2|BAB A2G2|ABc A2G2|G2F E4|
E2F G2A2|ABA G2F2|FGG GAGF|F2E E2E2:|
V:2
|:d2e f2e2|dcd c2B2|fga f2e2|e2d c4|
c2d e2f2|fgf e2d2|dee efed|d2c c2c2:|
V:3
|:D2E F2E2|DCD C2B,2|FGA F2E2|E2D C4|
C2D E2F2|FGF E2D2|DEE EFED|D2C C2C2:|
V:1
|:efd efga|bc'a c'bag|gfa g2f2|1 ,3 efd efdf:|2 ,4 efd e2e2||
V:2
|:cdB cdef|gaf agfe|edf e2d2|1 ,3 cdB cdBd:|2 ,4 cdB c2c2||
V:3
|:EFD EFGA|BcA cBAG|GFA G2F2|1 ,3 EFD EFDF:|2 ,4 EFD E2E2||

